dev-itpro/developer/media/bcv24-architecture-overview.svg

<?xml version="1.0" encoding="UTF-8" standalone="no"?>
<svg
   width="690.43561"
   height="494.95837"
   overflow="hidden"
   version="1.1"
   id="svg20"
   sodipodi:docname="bcv24-architecture-overview.svg"
   inkscape:version="1.3.2 (091e20e, 2023-11-25, custom)"
   xmlns:inkscape="http://www.inkscape.org/namespaces/inkscape"
   xmlns:sodipodi="http://sodipodi.sourceforge.net/DTD/sodipodi-0.dtd"
   xmlns="http://www.w3.org/2000/svg"
   xmlns:svg="http://www.w3.org/2000/svg">
  <defs
     id="defs20">
    <clipPath
       clipPathUnits="userSpaceOnUse"
       id="clipPath21">
      <rect
         style="fill:none"
         id="rect22"
         width="690.43561"
         height="494.95837"
         x="384.06265"
         y="128.43858" />
    </clipPath>
  </defs>
  <sodipodi:namedview
     id="namedview20"
     pagecolor="#ffffff"
     bordercolor="#000000"
     borderopacity="0.25"
     inkscape:showpageshadow="2"
     inkscape:pageopacity="0.0"
     inkscape:pagecheckerboard="0"
     inkscape:deskcolor="#d1d1d1"
     inkscape:zoom="1.5960938"
     inkscape:cx="255.93735"
     inkscape:cy="231.50269"
     inkscape:window-width="2560"
     inkscape:window-height="1369"
     inkscape:window-x="-8"
     inkscape:window-y="-8"
     inkscape:window-maximized="1"
     inkscape:current-layer="svg20" />
  <g
     id="g20"
     clip-path="url(#clipPath21)"
     transform="translate(-384.06265,-128.43858)">
    <rect
       x="0"
       y="0"
       width="1280"
       height="720"
       fill="#ffffff"
       id="rect1" />
    <rect
       x="404"
       y="204"
       width="350"
       height="87"
       fill="#afabab"
       id="rect2" />
    <text
       fill="#ffffff"
       font-family="Calibri, Calibri_MSFontService, sans-serif"
       font-weight="400"
       font-size="16px"
       transform="translate(525.316,253)"
       id="text2">Base Application</text>
    <rect
       x="404"
       y="355"
       width="472"
       height="39"
       fill="#afabab"
       id="rect3" />
    <text
       fill="#ffffff"
       font-family="Calibri, Calibri_MSFontService, sans-serif"
       font-weight="400"
       font-size="16px"
       transform="translate(545.033,380)"
       id="text3">Microsoft System Application</text>
    <rect
       x="404"
       y="132"
       width="108"
       height="44"
       fill="#afabab"
       id="rect4" />
    <text
       fill="#ffffff"
       font-family="Calibri, Calibri_MSFontService, sans-serif"
       font-weight="400"
       font-size="16px"
       transform="translate(426.204,160)"
       id="text4">Extension</text>
    <rect
       x="646"
       y="132"
       width="108"
       height="44"
       fill="#afabab"
       id="rect5" />
    <text
       fill="#ffffff"
       font-family="Calibri, Calibri_MSFontService, sans-serif"
       font-weight="400"
       font-size="16px"
       transform="translate(668.445,160)"
       id="text5">Extension</text>
    <rect
       x="525"
       y="132"
       width="107"
       height="44"
       fill="#afabab"
       id="rect6" />
    <text
       fill="#ffffff"
       font-family="Calibri, Calibri_MSFontService, sans-serif"
       font-weight="400"
       font-size="16px"
       transform="translate(546.897,160)"
       id="text6">Extension</text>
    <rect
       x="404"
       y="423"
       width="472"
       height="75"
       fill="#afabab"
       id="rect7" />
    <text
       fill="#ffffff"
       font-family="Calibri, Calibri_MSFontService, sans-serif"
       font-weight="400"
       font-size="16px"
       transform="translate(591.43,447)"
       id="text7">System</text>
    <text
       fill="#ffffff"
       font-family="Calibri, Calibri_MSFontService, sans-serif"
       font-weight="400"
       font-size="16px"
       transform="translate(641.403,447)"
       id="text8">objects</text>
    <text
       fill="#ffffff"
       font-family="Calibri, Calibri_MSFontService, sans-serif"
       font-weight="400"
       font-size="16px"
       transform="translate(611.91,485)"
       id="text9">Platform</text>
    <path
       d="M 457,461 H 804.016"
       stroke="#ffffff"
       stroke-width="2.33333"
       stroke-miterlimit="8"
       fill="none"
       fill-rule="evenodd"
       id="path9" />
    <rect
       x="767"
       y="132"
       width="109"
       height="212"
       fill="#afabab"
       id="rect9" />
    <text
       fill="#ffffff"
       font-family="Calibri, Calibri_MSFontService, sans-serif"
       font-weight="400"
       font-size="16px"
       transform="translate(790.093,244)"
       id="text10">Extension</text>
    <path
       d="m 412.5,545.5 c 0,-7.732 49.025,-14 109.5,-14 60.475,0 109.5,6.268 109.5,14 v 56 c 0,7.732 -49.025,14 -109.5,14 -60.475,0 -109.5,-6.268 -109.5,-14 z"
       fill="#afabab"
       fill-rule="evenodd"
       id="path10" />
    <path
       d="m 631.5,545.5 c 0,7.732 -49.025,14 -109.5,14 -60.475,0 -109.5,-6.268 -109.5,-14"
       stroke="#ffffff"
       stroke-width="1.33333"
       stroke-miterlimit="8"
       fill="none"
       fill-rule="evenodd"
       id="path11" />
    <path
       d="m 412.5,545.5 c 0,-7.732 49.025,-14 109.5,-14 60.475,0 109.5,6.268 109.5,14 v 56 c 0,7.732 -49.025,14 -109.5,14 -60.475,0 -109.5,-6.268 -109.5,-14 z"
       stroke="#ffffff"
       stroke-width="1.33333"
       stroke-miterlimit="8"
       fill="none"
       fill-rule="evenodd"
       id="path12" />
    <text
       fill="#ffffff"
       font-family="Calibri, Calibri_MSFontService, sans-serif"
       font-weight="400"
       font-size="16px"
       transform="translate(453.019,585)"
       id="text12">Application database</text>
    <path
       d="m 646.5,545.5 c 0,-7.732 49.025,-14 109.5,-14 60.475,0 109.5,6.268 109.5,14 v 56 c 0,7.732 -49.025,14 -109.5,14 -60.475,0 -109.5,-6.268 -109.5,-14 z"
       fill="#afabab"
       fill-rule="evenodd"
       id="path13" />
    <path
       d="m 865.5,545.5 c 0,7.732 -49.025,14 -109.5,14 -60.475,0 -109.5,-6.268 -109.5,-14"
       stroke="#ffffff"
       stroke-width="1.33333"
       stroke-miterlimit="8"
       fill="none"
       fill-rule="evenodd"
       id="path14" />
    <path
       d="m 646.5,545.5 c 0,-7.732 49.025,-14 109.5,-14 60.475,0 109.5,6.268 109.5,14 v 56 c 0,7.732 -49.025,14 -109.5,14 -60.475,0 -109.5,-6.268 -109.5,-14 z"
       stroke="#ffffff"
       stroke-width="1.33333"
       stroke-miterlimit="8"
       fill="none"
       fill-rule="evenodd"
       id="path15" />
    <text
       fill="#ffffff"
       font-family="Calibri, Calibri_MSFontService, sans-serif"
       font-weight="400"
       font-size="16px"
       transform="translate(701.785,585)"
       id="text15">Tenant</text>
    <text
       fill="#ffffff"
       font-family="Calibri, Calibri_MSFontService, sans-serif"
       font-weight="400"
       font-size="16px"
       transform="translate(749.385,585)"
       id="text16">database</text>
    <path
       d="m 404.5,536 c 0,-9.112 7.388,-16.5 16.5,-16.5 h 439 c 9.113,0 16.5,7.388 16.5,16.5 v 66 c 0,9.113 -7.387,16.5 -16.5,16.5 H 421 c -9.112,0 -16.5,-7.387 -16.5,-16.5 z"
       stroke="#afabab"
       stroke-width="1.33333"
       stroke-miterlimit="8"
       stroke-dasharray="5.33333, 4"
       fill="none"
       fill-rule="evenodd"
       id="path16" />
    <path
       d="m 389.5,406.5 h 681"
       stroke="#000000"
       stroke-width="1.33333"
       stroke-miterlimit="8"
       fill="none"
       fill-rule="evenodd"
       id="path17" />
    <text
       font-family="Calibri, Calibri_MSFontService, sans-serif"
       font-weight="400"
       font-size="16px"
       transform="translate(895.6,388)"
       id="text17">Application extensions</text>
    <text
       font-family="Calibri, Calibri_MSFontService, sans-serif"
       font-weight="400"
       font-size="16px"
       transform="translate(895.6,427)"
       id="text18">Platform</text>
    <rect
       x="404"
       y="180"
       width="350"
       height="20"
       fill="#afabab"
       id="rect18" />
    <text
       fill="#ffffff"
       font-family="Calibri, Calibri_MSFontService, sans-serif"
       font-weight="400"
       font-size="16px"
       transform="translate(509.196,195)"
       id="text19">Microsoft Application</text>
    <rect
       x="404"
       y="303"
       width="350"
       height="39"
       fill="#afabab"
       id="rect19" />
    <text
       fill="#ffffff"
       font-family="Calibri, Calibri_MSFontService, sans-serif"
       font-weight="400"
       font-size="16px"
       transform="translate(512.359,328)"
       id="text20">Business Foundation</text>
  </g>
  <rect
     style="fill:none"
     id="rect20"
     width="694.19489"
     height="501.22372"
     x="2.506134"
     y="-8.1448898"
     ry="0" />
</svg>

<svg width="1280" height="720" xmlns="http://www.w3.org/2000/svg" xmlns:xlink="http://www.w3.org/1999/xlink" overflow="hidden"><g><rect x="0" y="0" width="1280" height="720" fill="#FFFFFF"/><rect x="404" y="204" width="350" height="87" fill="#AFABAB"/><text fill="#FFFFFF" font-family="Calibri,Calibri_MSFontService,sans-serif" font-weight="400" font-size="16" transform="translate(525.316 253)">Base Application</text><rect x="404" y="355" width="472" height="39" fill="#AFABAB"/><text fill="#FFFFFF" font-family="Calibri,Calibri_MSFontService,sans-serif" font-weight="400" font-size="16" transform="translate(545.033 380)">Microsoft System Application</text><rect x="404" y="132" width="108" height="44" fill="#AFABAB"/><text fill="#FFFFFF" font-family="Calibri,Calibri_MSFontService,sans-serif" font-weight="400" font-size="16" transform="translate(426.204 160)">Extension</text><rect x="646" y="132" width="108" height="44" fill="#AFABAB"/><text fill="#FFFFFF" font-family="Calibri,Calibri_MSFontService,sans-serif" font-weight="400" font-size="16" transform="translate(668.445 160)">Extension</text><rect x="525" y="132" width="107" height="44" fill="#AFABAB"/><text fill="#FFFFFF" font-family="Calibri,Calibri_MSFontService,sans-serif" font-weight="400" font-size="16" transform="translate(546.897 160)">Extension</text><rect x="404" y="423" width="472" height="75" fill="#AFABAB"/><text fill="#FFFFFF" font-family="Calibri,Calibri_MSFontService,sans-serif" font-weight="400" font-size="16" transform="translate(591.43 447)">System</text><text fill="#FFFFFF" font-family="Calibri,Calibri_MSFontService,sans-serif" font-weight="400" font-size="16" transform="translate(641.403 447)">objects</text><text fill="#FFFFFF" font-family="Calibri,Calibri_MSFontService,sans-serif" font-weight="400" font-size="16" transform="translate(611.91 485)">Platform</text><path d="M457 461 804.016 461" stroke="#FFFFFF" stroke-width="2.33333" stroke-miterlimit="8" fill="none" fill-rule="evenodd"/><rect x="767" y="132" width="109" height="212" fill="#AFABAB"/><text fill="#FFFFFF" font-family="Calibri,Calibri_MSFontService,sans-serif" font-weight="400" font-size="16" transform="translate(790.093 244)">Extension</text><path d="M412.5 545.5C412.5 537.768 461.525 531.5 522 531.5 582.475 531.5 631.5 537.768 631.5 545.5L631.5 601.5C631.5 609.232 582.475 615.5 522 615.5 461.525 615.5 412.5 609.232 412.5 601.5Z" fill="#AFABAB" fill-rule="evenodd"/><path d="M631.5 545.5C631.5 553.232 582.475 559.5 522 559.5 461.525 559.5 412.5 553.232 412.5 545.5" stroke="#FFFFFF" stroke-width="1.33333" stroke-miterlimit="8" fill="none" fill-rule="evenodd"/><path d="M412.5 545.5C412.5 537.768 461.525 531.5 522 531.5 582.475 531.5 631.5 537.768 631.5 545.5L631.5 601.5C631.5 609.232 582.475 615.5 522 615.5 461.525 615.5 412.5 609.232 412.5 601.5Z" stroke="#FFFFFF" stroke-width="1.33333" stroke-miterlimit="8" fill="none" fill-rule="evenodd"/><text fill="#FFFFFF" font-family="Calibri,Calibri_MSFontService,sans-serif" font-weight="400" font-size="16" transform="translate(453.019 585)">Application database</text><path d="M646.5 545.5C646.5 537.768 695.525 531.5 756 531.5 816.475 531.5 865.5 537.768 865.5 545.5L865.5 601.5C865.5 609.232 816.475 615.5 756 615.5 695.525 615.5 646.5 609.232 646.5 601.5Z" fill="#AFABAB" fill-rule="evenodd"/><path d="M865.5 545.5C865.5 553.232 816.475 559.5 756 559.5 695.525 559.5 646.5 553.232 646.5 545.5" stroke="#FFFFFF" stroke-width="1.33333" stroke-miterlimit="8" fill="none" fill-rule="evenodd"/><path d="M646.5 545.5C646.5 537.768 695.525 531.5 756 531.5 816.475 531.5 865.5 537.768 865.5 545.5L865.5 601.5C865.5 609.232 816.475 615.5 756 615.5 695.525 615.5 646.5 609.232 646.5 601.5Z" stroke="#FFFFFF" stroke-width="1.33333" stroke-miterlimit="8" fill="none" fill-rule="evenodd"/><text fill="#FFFFFF" font-family="Calibri,Calibri_MSFontService,sans-serif" font-weight="400" font-size="16" transform="translate(701.785 585)">Tenant</text><text fill="#FFFFFF" font-family="Calibri,Calibri_MSFontService,sans-serif" font-weight="400" font-size="16" transform="translate(749.385 585)">database</text><path d="M404.5 536C404.5 526.888 411.888 519.5 421 519.5L860 519.5C869.113 519.5 876.5 526.888 876.5 536L876.5 602C876.5 611.113 869.113 618.5 860 618.5L421 618.5C411.888 618.5 404.5 611.113 404.5 602Z" stroke="#AFABAB" stroke-width="1.33333" stroke-miterlimit="8" stroke-dasharray="5.33333 4" fill="none" fill-rule="evenodd"/><path d="M389.5 406.5 1070.5 406.5" stroke="#000000" stroke-width="1.33333" stroke-miterlimit="8" fill="none" fill-rule="evenodd"/><text font-family="Calibri,Calibri_MSFontService,sans-serif" font-weight="400" font-size="16" transform="translate(895.6 388)">Application extensions</text><text font-family="Calibri,Calibri_MSFontService,sans-serif" font-weight="400" font-size="16" transform="translate(895.6 427)">Platform</text><rect x="404" y="180" width="350" height="20" fill="#AFABAB"/><text fill="#FFFFFF" font-family="Calibri,Calibri_MSFontService,sans-serif" font-weight="400" font-size="16" transform="translate(509.196 195)">Microsoft Application</text><rect x="404" y="303" width="350" height="39" fill="#AFABAB"/><text fill="#FFFFFF" font-family="Calibri,Calibri_MSFontService,sans-serif" font-weight="400" font-size="16" transform="translate(512.359 328)">Business Foundation</text></g></svg>
